X: 40235
T: Tipperary So Far Away
R: waltz
M: 3/4
K: Dmajor
||d4 d2|D2 F2 A2|c4 B2|A4 F2|G2 F2 E2|D4 E2|(D6|D2) c2 d2|
e4 e2|A2 c2 e2|d4 d2|c4 B2|A2 B2 A2|G2 F2 G2|(A6|A2) c2 d2|
e4 e2|A2 c2 e2|d4 d2|c4 B2|A2 B2 A2|G2 F2 G2|(A6|A2) B2 c2|
d4 d2|D2 F2 A2|c4 B2|A2 G2 F2|G2 F2 E2|D4 E2|D6||

